assets/binoculars-fill.svg

<svg xmlns="http://www.w3.org/2000/svg" fill="none" viewBox="0 0 25 27">
  <path fill="#2A2238" d="M6.125 0c-.69619 0-1.36387.276562-1.85616.768845C3.77656 1.26113 3.5 1.92881 3.5 2.625V3.5h7v-.875c0-.69619-.2766-1.36387-.76884-1.856155C9.23887.276562 8.57119 0 7.875 0h-1.75ZM10.5 5.25V7H14V5.25h7v1.5435c0 .16236.0452.32152.1305.45967.0853.13815.2073.24984.3525.32258l1.5662.78225c.4361.21811.8028.55335 1.0591.96815.2562.41481.3918.89275.3917 1.38035V21H14v-2.625c-.0002-.115.0223-.2289.0661-.3352.0438-.1063.1082-.2029.1894-.2843l1.4945-1.4927V14.875c0-.2321-.0922-.4546-.2563-.6187-.1641-.1641-.3866-.2563-.6187-.2563h-5.25c-.23206 0-.45462.0922-.61872.2563-.16409.1641-.25628.3866-.25628.6187v1.3878l1.4945 1.4927c.0812.0814.1456.178.1894.2843.0438.1063.0663.2202.0661.3352V21H0V10.7065c.00001648-.4878.135927-.96585.392487-1.38068.25656-.41482.623623-.74996 1.060013-.96782l1.5645-.78225c.14516-.07274.26721-.18443.35251-.32258.0853-.13815.13048-.29731.13049-.45967V5.25h7ZM0 22.75v.875c0 .6962.276562 1.3639.768845 1.8562.492285.4922 1.159965.7688 1.856155.7688h5.25c.69619 0 1.36387-.2766 1.85616-.7688.49224-.4923.76884-1.16.76884-1.8562v-.875H0Zm14 0v.875c0 .6962.2766 1.3639.7688 1.8562.4923.4922 1.16.7688 1.8562.7688h5.25c.6962 0 1.3639-.2766 1.8562-.7688.4922-.4923.7688-1.16.7688-1.8562v-.875H14ZM21 3.5h-7v-.875c0-.69619.2766-1.36387.7688-1.856155C15.2611.276562 15.9288 0 16.625 0h1.75c.6962 0 1.3639.276562 1.8562.768845C20.7234 1.26113 21 1.92881 21 2.625V3.5Z"/>
</svg>

<svg width="25" height="27" viewBox="0 0 25 27" fill="none" xmlns="http://www.w3.org/2000/svg">
<path d="M6.125 0C5.42881 0 4.76113 0.276562 4.26884 0.768845C3.77656 1.26113 3.5 1.92881 3.5 2.625V3.5H10.5V2.625C10.5 1.92881 10.2234 1.26113 9.73116 0.768845C9.23887 0.276562 8.57119 0 7.875 0H6.125ZM10.5 5.25V7H14V5.25H21V6.7935C21 6.95586 21.0452 7.11502 21.1305 7.25317C21.2158 7.39132 21.3378 7.50301 21.483 7.57575L23.0492 8.358C23.4853 8.57611 23.852 8.91135 24.1083 9.32615C24.3645 9.74096 24.5001 10.2189 24.5 10.7065V21H14V18.375C13.9998 18.26 14.0223 18.1461 14.0661 18.0398C14.1099 17.9335 14.1743 17.8369 14.2555 17.7555L15.75 16.2628V14.875C15.75 14.6429 15.6578 14.4204 15.4937 14.2563C15.3296 14.0922 15.1071 14 14.875 14H9.625C9.39294 14 9.17038 14.0922 9.00628 14.2563C8.84219 14.4204 8.75 14.6429 8.75 14.875V16.2628L10.2445 17.7555C10.3257 17.8369 10.3901 17.9335 10.4339 18.0398C10.4777 18.1461 10.5002 18.26 10.5 18.375V21H0V10.7065C1.64763e-05 10.2187 0.135927 9.74065 0.392487 9.32582C0.649047 8.911 1.01611 8.57586 1.4525 8.358L3.017 7.57575C3.16216 7.50301 3.28421 7.39132 3.36951 7.25317C3.45481 7.11502 3.49999 6.95586 3.5 6.7935V5.25H10.5ZM0 22.75V23.625C0 24.3212 0.276562 24.9889 0.768845 25.4812C1.26113 25.9734 1.92881 26.25 2.625 26.25H7.875C8.57119 26.25 9.23887 25.9734 9.73116 25.4812C10.2234 24.9889 10.5 24.3212 10.5 23.625V22.75H0ZM14 22.75V23.625C14 24.3212 14.2766 24.9889 14.7688 25.4812C15.2611 25.9734 15.9288 26.25 16.625 26.25H21.875C22.5712 26.25 23.2389 25.9734 23.7312 25.4812C24.2234 24.9889 24.5 24.3212 24.5 23.625V22.75H14ZM21 3.5H14V2.625C14 1.92881 14.2766 1.26113 14.7688 0.768845C15.2611 0.276562 15.9288 0 16.625 0H18.375C19.0712 0 19.7389 0.276562 20.2312 0.768845C20.7234 1.26113 21 1.92881 21 2.625V3.5Z" fill="#2A2238"/>
</svg>
